Simply-Purple-Circles/scalable/apps/zynaddsubfx.svg

<svg xmlns="http://www.w3.org/2000/svg" width="48" height="48" viewBox="0 0 12.7 12.7"><path d="M6.34.07a6.29 6.29 0 0 0-6.29 6.3 6.29 6.29 0 0 0 6.3 6.28 6.29 6.29 0 0 0 6.28-6.29A6.29 6.29 0 0 0 6.34.07zM6.32 1l.01.01a5.4 5.4 0 0 1 5.4 5.4 5.4 5.4 0 0 1-5.4 5.41 5.4 5.4 0 0 1-5.41-5.4A5.4 5.4 0 0 1 6.32 1zm0 .8a4.6 4.6 0 0 0-2.62.82l1.55 1.55a2.5 2.5 0 0 1 .17-.08 2.5 2.5 0 0 1 .24-.08 2.5 2.5 0 0 1 .24-.05 2.5 2.5 0 0 1 .25-.03 2.5 2.5 0 0 1 .18-.01 2.5 2.5 0 0 1 .26.02 2.5 2.5 0 0 1 .24.03 2.5 2.5 0 0 1 .24.07 2.5 2.5 0 0 1 .24.08 2.5 2.5 0 0 1 .12.06l1.54-1.54a4.6 4.6 0 0 0-2.64-.84zM2.6 3.68a4.6 4.6 0 0 0-.89 2.73 4.6 4.6 0 0 0 .84 2.64L4.1 7.52a2.5 2.5 0 0 1-.08-.19 2.5 2.5 0 0 1-.08-.23 2.5 2.5 0 0 1-.06-.25 2.5 2.5 0 0 1-.03-.24 2.5 2.5 0 0 1 0-.19 2.5 2.5 0 0 1 0-.24 2.5 2.5 0 0 1 .05-.25 2.5 2.5 0 0 1 .06-.24 2.5 2.5 0 0 1 .08-.24 2.5 2.5 0 0 1 .1-.22L2.6 3.69zm7.47.03L8.54 5.25a2.5 2.5 0 0 1 .02.04 2.5 2.5 0 0 1 .1.23 2.5 2.5 0 0 1 .08.23A2.5 2.5 0 0 1 8.8 6a2.5 2.5 0 0 1 .03.24 2.5 2.5 0 0 1 0 .18 2.5 2.5 0 0 1-.01.25 2.5 2.5 0 0 1-.04.25 2.5 2.5 0 0 1-.06.24 2.5 2.5 0 0 1-.08.23 2.5 2.5 0 0 1-.05.1l1.53 1.54a4.6 4.6 0 0 0 .82-2.62 4.6 4.6 0 0 0-.87-2.69zM5.08 4.84v.6h1.57L5.04 7.38v.47h2.62v-.6H6l1.62-1.95v-.47H5.08zm2.45 3.78a2.5 2.5 0 0 1-.06.03 2.5 2.5 0 0 1-.22.1 2.5 2.5 0 0 1-.24.08 2.5 2.5 0 0 1-.24.05 2.5 2.5 0 0 1-.25.03 2.5 2.5 0 0 1-.18 0 2.5 2.5 0 0 1-.25 0 2.5 2.5 0 0 1-.25-.04 2.5 2.5 0 0 1-.24-.06 2.5 2.5 0 0 1-.23-.09 2.5 2.5 0 0 1-.2-.1l-1.54 1.54a4.6 4.6 0 0 0 2.7.87 4.6 4.6 0 0 0 2.71-.9L7.53 8.62z" fill="#963996"/></svg>

<?xml version="1.0" encoding="UTF-8" standalone="no"?>
<svg
   xmlns:dc="http://purl.org/dc/elements/1.1/"
   xmlns:cc="http://creativecommons.org/ns#"
   xmlns:rdf="http://www.w3.org/1999/02/22-rdf-syntax-ns#"
   xmlns:svg="http://www.w3.org/2000/svg"
   xmlns="http://www.w3.org/2000/svg"
   xmlns:sodipodi="http://sodipodi.sourceforge.net/DTD/sodipodi-0.dtd"
   xmlns:inkscape="http://www.inkscape.org/namespaces/inkscape"
   width="48"
   height="48"
   viewBox="0 0 12.7 12.7"
   version="1.1"
   id="svg4"
   sodipodi:docname="zynaddsubfx.svg"
   inkscape:version="0.92.4 (5da689c313, 2019-01-14)">
  <metadata
     id="metadata10">
    <rdf:RDF>
      <cc:Work
         rdf:about="">
        <dc:format>image/svg+xml</dc:format>
        <dc:type
           rdf:resource="http://purl.org/dc/dcmitype/StillImage" />
        <dc:title></dc:title>
      </cc:Work>
    </rdf:RDF>
  </metadata>
  <defs
     id="defs8" />
  <sodipodi:namedview
     pagecolor="#ffffff"
     bordercolor="#666666"
     borderopacity="1"
     objecttolerance="10"
     gridtolerance="10"
     guidetolerance="10"
     inkscape:pageopacity="0"
     inkscape:pageshadow="2"
     inkscape:window-width="1087"
     inkscape:window-height="480"
     id="namedview6"
     showgrid="false"
     inkscape:zoom="4.9166667"
     inkscape:cx="2.1355932"
     inkscape:cy="24"
     inkscape:window-x="0"
     inkscape:window-y="25"
     inkscape:window-maximized="0"
     inkscape:current-layer="svg4" />
  <path
     d="M 6.34,0.07 A 6.29,6.29 0 0 0 0.05,6.37 6.29,6.29 0 0 0 6.35,12.65 6.29,6.29 0 0 0 12.63,6.36 6.29,6.29 0 0 0 6.34,0.07 Z M 6.32,1 6.33,1.01 a 5.4,5.4 0 0 1 5.4,5.4 5.4,5.4 0 0 1 -5.4,5.41 A 5.4,5.4 0 0 1 0.92,6.42 5.4,5.4 0 0 1 6.32,1 Z m 0,0.8 A 4.6,4.6 0 0 0 3.7,2.62 L 5.25,4.17 A 2.5,2.5 0 0 1 5.42,4.09 2.5,2.5 0 0 1 5.66,4.01 2.5,2.5 0 0 1 5.9,3.96 2.5,2.5 0 0 1 6.15,3.93 2.5,2.5 0 0 1 6.33,3.92 2.5,2.5 0 0 1 6.59,3.94 2.5,2.5 0 0 1 6.83,3.97 2.5,2.5 0 0 1 7.07,4.04 2.5,2.5 0 0 1 7.31,4.12 2.5,2.5 0 0 1 7.43,4.18 L 8.97,2.64 A 4.6,4.6 0 0 0 6.33,1.8 Z M 2.6,3.68 A 4.6,4.6 0 0 0 1.71,6.41 4.6,4.6 0 0 0 2.55,9.05 L 4.1,7.52 A 2.5,2.5 0 0 1 4.02,7.33 2.5,2.5 0 0 1 3.94,7.1 2.5,2.5 0 0 1 3.88,6.85 2.5,2.5 0 0 1 3.85,6.61 2.5,2.5 0 0 1 3.85,6.42 2.5,2.5 0 0 1 3.85,6.18 2.5,2.5 0 0 1 3.9,5.93 2.5,2.5 0 0 1 3.96,5.69 2.5,2.5 0 0 1 4.04,5.45 2.5,2.5 0 0 1 4.14,5.23 L 2.6,3.69 Z M 10.07,3.71 8.54,5.25 A 2.5,2.5 0 0 1 8.56,5.29 2.5,2.5 0 0 1 8.66,5.52 2.5,2.5 0 0 1 8.74,5.75 2.5,2.5 0 0 1 8.8,6 2.5,2.5 0 0 1 8.83,6.24 2.5,2.5 0 0 1 8.83,6.42 2.5,2.5 0 0 1 8.82,6.67 2.5,2.5 0 0 1 8.78,6.92 2.5,2.5 0 0 1 8.72,7.16 2.5,2.5 0 0 1 8.64,7.39 2.5,2.5 0 0 1 8.59,7.49 l 1.53,1.54 A 4.6,4.6 0 0 0 10.94,6.41 4.6,4.6 0 0 0 10.07,3.72 Z M 5.08,4.84 v 0.6 H 6.65 L 5.04,7.38 V 7.85 H 7.66 V 7.25 H 6 L 7.62,5.3 V 4.83 H 5.08 Z M 7.53,8.62 A 2.5,2.5 0 0 1 7.47,8.65 2.5,2.5 0 0 1 7.25,8.75 2.5,2.5 0 0 1 7.01,8.83 2.5,2.5 0 0 1 6.77,8.88 2.5,2.5 0 0 1 6.52,8.91 2.5,2.5 0 0 1 6.34,8.91 2.5,2.5 0 0 1 6.09,8.91 2.5,2.5 0 0 1 5.84,8.87 2.5,2.5 0 0 1 5.6,8.81 2.5,2.5 0 0 1 5.37,8.72 2.5,2.5 0 0 1 5.17,8.62 l -1.54,1.54 a 4.6,4.6 0 0 0 2.7,0.87 4.6,4.6 0 0 0 2.71,-0.9 z"
     id="path2"
     inkscape:connector-curvature="0"
     style="fill:#963996" />
</svg>
